X: 12846
T: Ferbane Legend, The
R: jig
M: 6/8
K: Eminor
|:D|EFE EDB|DEG ABd|efe dBA|FED B2 D|
EFE EDB|DEG ABd|efe dBA|FED E2:|
|:d|efe edB|BAF ABd|efe dBA|FED B2 d|
efe edB|DEG ABd|efe dBA|FED E2:|

